src/_assets/sidebar/preimages.svg

<svg xmlns="http://www.w3.org/2000/svg" width="24" height="24" fill="none"><path fill="#485F7D" d="M9.3 14.06h7.82l-2.54-3.42-2.06 2.7-1.36-1.74zM7.6 17.6q-.48 0-.84-.36t-.36-.84V5.2q0-.48.36-.84T7.6 4h11.2q.48 0 .84.36t.36.84v11.2q0 .48-.36.84t-.84.36zm0-1.2h11.2V5.2H7.6zM5.2 20q-.48 0-.84-.36T4 18.8V6.4h1.2v12.4h12.4V20z"/></svg>

<svg width="24" height="24" viewBox="0 0 24 24" fill="none" xmlns="http://www.w3.org/2000/svg">
<path d="M9.3 14.06H17.12L14.58 10.64L12.52 13.34L11.16 11.6L9.3 14.06ZM7.6 17.6C7.28 17.6 7 17.48 6.76 17.24C6.52 17 6.4 16.72 6.4 16.4V5.2C6.4 4.88 6.52 4.6 6.76 4.36C7 4.12 7.28 4 7.6 4H18.8C19.12 4 19.4 4.12 19.64 4.36C19.88 4.6 20 4.88 20 5.2V16.4C20 16.72 19.88 17 19.64 17.24C19.4 17.48 19.12 17.6 18.8 17.6H7.6ZM7.6 16.4H18.8V5.2H7.6V16.4ZM5.2 20C4.88 20 4.6 19.88 4.36 19.64C4.12 19.4 4 19.12 4 18.8V6.4H5.2V18.8H17.6V20H5.2Z" fill="#485F7D"/>
</svg>
